libs/ui/packages/crypto-icons/src/svg/LTC.svg

<svg width="24" height="24" viewBox="0 0 24 24" fill="none">
<path fill-rule="evenodd" clip-rule="evenodd" d="M7.82025 14.4105L6.75 14.826L7.266 12.7568L8.349 12.3218L9.90975 6H13.7565L12.6172 10.647L13.6747 10.2188L13.1647 12.2812L12.0945 12.7095L11.4585 15.3218H17.25L16.5953 18H6.939L7.82025 14.4105Z" fill="#345D9D"/>
</svg>

<svg width="24" height="24" viewBox="0 0 24 24" fill="none"><path fill="#345d9d" fill-rule="evenodd" d="m7.82 14.41-1.07.416.516-2.07 1.083-.434L9.909 6h3.848l-1.14 4.647 1.058-.428-.51 2.062-1.07.428-.636 2.613h5.791L16.595 18H6.94z" clip-rule="evenodd"/></svg>
